icons/1_Primary/Logitech.svg

<svg width="1024" height="1024" viewBox="0 0 1024 1024" fill="none" xmlns="http://www.w3.org/2000/svg">
<g clip-path="url(#clip0_2_2703)">
<path d="M512 1024C794.77 1024 1024 794.77 1024 512C1024 229.23 794.77 0 512 0C229.23 0 0 229.23 0 512C0 794.77 229.23 1024 512 1024Z" fill="#9ABEFF"/>
<path d="M429.29 479.07V458.22H392.76C386.76 456.09 380.44 454.98 374.07 454.94C342.55 454.94 317.75 479.08 317.75 510.56C317.75 542.04 342.55 566.18 374.07 566.18C405.59 566.18 430.37 542.05 430.37 510.64C430.37 500 427.53 489.57 421.84 481.81L429.29 479.07ZM401.99 522.18C400.5 525.871 398.287 529.227 395.481 532.05C392.675 534.874 389.332 537.107 385.65 538.62C381.978 540.129 378.04 540.88 374.07 540.83C368.11 540.83 362.29 539.05 357.34 535.72C352.382 532.381 348.523 527.649 346.25 522.12C343.968 516.583 343.373 510.495 344.54 504.62C345.698 498.751 348.565 493.355 352.78 489.11C356.99 484.87 362.36 481.99 368.2 480.82C374.04 479.65 380.1 480.25 385.6 482.54C391.1 484.83 395.81 488.72 399.12 493.7C402.433 498.688 404.2 504.542 404.2 510.53C404.25 514.52 403.5 518.48 402 522.18H401.99ZM252.49 455.11V454.99C220.98 454.99 196.19 479.13 196.19 510.62C196.19 542.11 220.99 566.19 252.49 566.19C283.99 566.19 308.79 542.06 308.79 510.65C308.79 479.24 283.99 455.11 252.49 455.11ZM280.41 522.18C278.91 525.88 276.7 529.24 273.89 532.06C271.085 534.877 267.746 537.107 264.07 538.62C260.398 540.129 256.46 540.88 252.49 540.83C246.53 540.83 240.71 539.05 235.76 535.72C230.802 532.381 226.943 527.649 224.67 522.12C222.388 516.583 221.793 510.495 222.96 504.62C224.118 498.751 226.985 493.355 231.2 489.11C235.41 484.87 240.78 481.99 246.62 480.82C252.46 479.65 258.52 480.25 264.02 482.54C269.52 484.83 274.23 488.72 277.54 493.7C280.853 498.688 282.62 504.542 282.62 510.53C282.67 514.52 281.92 518.48 280.42 522.18H280.41ZM159.99 413.84H186.01V563.11H159.99V413.84ZM440.74 458.22H466.76V563.11H440.74V458.22ZM403.95 570.28H430.37C430.37 601.7 405.59 625.82 374.07 625.82C342.55 625.82 317.75 601.77 317.75 570.28H344.19C344.14 574.24 344.89 578.17 346.37 581.84C347.86 585.51 350.06 588.84 352.84 591.64C355.62 594.44 358.94 596.65 362.58 598.15C366.23 599.64 370.13 600.39 374.07 600.35C378.01 600.39 381.91 599.65 385.56 598.15C389.21 596.66 392.52 594.44 395.3 591.64C398.08 588.84 400.28 585.51 401.77 581.84C403.26 578.171 404.001 574.24 403.95 570.28ZM590.77 454.94C559.46 454.94 535.67 479.08 535.67 511.17C535.67 543.26 557.42 566.19 591.17 566.19C609.88 566.19 626.54 559.22 638.74 546.15L621.25 528.8C612.72 536.98 603.56 542.92 591.79 542.92C577.55 542.92 566.77 534.74 563.13 521.04H644.23V514.66C644.23 478.88 622.28 454.95 590.77 454.95V454.94ZM562.51 499.73C565.97 485.83 576.53 478.05 590.15 478.05C603.77 478.05 613.94 485.62 617.19 499.73H562.51ZM863.99 501.36V563.11H837.97V506.07C837.97 489.71 829.84 480.5 815 480.5C799.14 480.5 789.58 490.92 789.58 506.07V563.11H763.56V413.84H789.58V468.2C793.62 463.9 798.51 460.5 803.94 458.21C809.37 455.93 815.21 454.81 821.09 454.94C845.9 454.94 863.99 472.33 863.99 501.36ZM735.72 527.11L753.81 545.12C748.45 551.802 741.638 557.175 733.89 560.83C726.159 564.477 717.697 566.31 709.15 566.19C677.64 566.19 652.85 542.06 652.85 510.57C652.85 479.08 677.65 454.95 709.15 454.95C717.67 454.85 726.11 456.69 733.82 460.34C741.53 463.99 748.32 469.35 753.68 476.02L735.59 494.01C728.75 486.03 719.8 480.31 708.82 480.31L708.89 480.23C692.01 480.23 679.21 493.32 679.21 510.52C679.21 527.72 691.96 540.81 708.69 540.81C719.87 540.81 729.04 534.89 735.73 527.11H735.72ZM518.06 458.22H532.3V481.53H518.06V563.11H491.92V481.53H477.9V458.22H491.95V425.91H518.05V458.22H518.06ZM469.75 421.63C470.62 423.77 471.05 426.06 471.02 428.37C471.02 432.98 469.2 437.4 465.96 440.66C462.72 443.92 458.32 445.75 453.74 445.75C449.16 445.75 444.76 443.92 441.52 440.66C438.277 437.392 436.458 432.974 436.46 428.37C436.42 426.09 436.83 423.83 437.68 421.72C438.52 419.61 439.77 417.68 441.37 416.06C442.958 414.443 444.854 413.162 446.946 412.291C449.038 411.42 451.284 410.978 453.55 410.99C455.85 410.93 458.13 411.34 460.26 412.19C462.39 413.04 464.34 414.32 465.97 415.94C467.6 417.56 468.89 419.5 469.76 421.64L469.75 421.63Z" fill="white"/>
</g>
<defs>
<clipPath id="clip0_2_2703">
<rect width="1024" height="1024" fill="white"/>
</clipPath>
</defs>
</svg>

<svg xmlns="http://www.w3.org/2000/svg" width="1024" height="1024" fill="none">
   <g clip-path="url(#a)">
      <path fill="#9ABEFF" d="M512 1024c282.77 0 512-229.23 512-512S794.77 0 512 0 0 229.23 0 512s229.23 512 512 512Z"/>
      <path fill="#fff" d="M429.29 479.07v-20.85h-36.53c-6-2.13-12.32-3.24-18.69-3.28-31.52 0-56.32 24.14-56.32 55.62 0 31.48 24.8 55.62 56.32 55.62s56.3-24.13 56.3-55.54c0-10.64-2.84-21.07-8.53-28.83l7.45-2.74Zm-27.3 43.11a29.852 29.852 0 0 1-16.34 16.44 29.485 29.485 0 0 1-11.58 2.21c-5.96 0-11.78-1.78-16.73-5.11a30.275 30.275 0 0 1-11.09-13.6 30.388 30.388 0 0 1-1.71-17.5 30.352 30.352 0 0 1 8.24-15.51c4.21-4.24 9.58-7.12 15.42-8.29 5.84-1.17 11.9-.57 17.4 1.72 5.5 2.29 10.21 6.18 13.52 11.16a30.418 30.418 0 0 1 5.08 16.83c.05 3.99-.7 7.95-2.2 11.65h-.01Zm-149.5-67.07v-.12c-31.51 0-56.3 24.14-56.3 55.63 0 31.49 24.8 55.57 56.3 55.57 31.5 0 56.3-24.13 56.3-55.54s-24.8-55.54-56.3-55.54Zm27.92 67.07c-1.5 3.7-3.71 7.06-6.52 9.88a29.94 29.94 0 0 1-9.82 6.56 29.485 29.485 0 0 1-11.58 2.21c-5.96 0-11.78-1.78-16.73-5.11a30.275 30.275 0 0 1-11.09-13.6 30.388 30.388 0 0 1-1.71-17.5 30.352 30.352 0 0 1 8.24-15.51c4.21-4.24 9.58-7.12 15.42-8.29 5.84-1.17 11.9-.57 17.4 1.72 5.5 2.29 10.21 6.18 13.52 11.16a30.418 30.418 0 0 1 5.08 16.83c.05 3.99-.7 7.95-2.2 11.65h-.01ZM159.99 413.84h26.02v149.27h-26.02V413.84Zm280.75 44.38h26.02v104.89h-26.02V458.22Zm-36.79 112.06h26.42c0 31.42-24.78 55.54-56.3 55.54-31.52 0-56.32-24.05-56.32-55.54h26.44c-.05 3.96.7 7.89 2.18 11.56 1.49 3.67 3.69 7 6.47 9.8 2.78 2.8 6.1 5.01 9.74 6.51 3.65 1.49 7.55 2.24 11.49 2.2 3.94.04 7.84-.7 11.49-2.2 3.65-1.49 6.96-3.71 9.74-6.51 2.78-2.8 4.98-6.13 6.47-9.8a29.708 29.708 0 0 0 2.18-11.56Zm186.82-115.34c-31.31 0-55.1 24.14-55.1 56.23 0 32.09 21.75 55.02 55.5 55.02 18.71 0 35.37-6.97 47.57-20.04l-17.49-17.35c-8.53 8.18-17.69 14.12-29.46 14.12-14.24 0-25.02-8.18-28.66-21.88h81.1v-6.38c0-35.78-21.95-59.71-53.46-59.71v-.01Zm-28.26 44.79c3.46-13.9 14.02-21.68 27.64-21.68 13.62 0 23.79 7.57 27.04 21.68h-54.68Zm301.48 1.63v61.75h-26.02v-57.04c0-16.36-8.13-25.57-22.97-25.57-15.86 0-25.42 10.42-25.42 25.57v57.04h-26.02V413.84h26.02v54.36c4.04-4.3 8.93-7.7 14.36-9.99 5.43-2.28 11.27-3.4 17.15-3.27 24.81 0 42.9 17.39 42.9 46.42Zm-128.27 25.75 18.09 18.01a56.367 56.367 0 0 1-19.92 15.71 56.14 56.14 0 0 1-24.74 5.36c-31.51 0-56.3-24.13-56.3-55.62s24.8-55.62 56.3-55.62c8.52-.1 16.96 1.74 24.67 5.39 7.71 3.65 14.5 9.01 19.86 15.68l-18.09 17.99c-6.84-7.98-15.79-13.7-26.77-13.7l.07-.08c-16.88 0-29.68 13.09-29.68 30.29s12.75 30.29 29.48 30.29c11.18 0 20.35-5.92 27.04-13.7h-.01Zm-217.66-68.89h14.24v23.31h-14.24v81.58h-26.14v-81.58H477.9v-23.31h14.05v-32.31h26.1v32.31h.01Zm-48.31-36.59c.87 2.14 1.3 4.43 1.27 6.74 0 4.61-1.82 9.03-5.06 12.29a17.233 17.233 0 0 1-12.22 5.09c-4.58 0-8.98-1.83-12.22-5.09a17.437 17.437 0 0 1-5.06-12.29c-.04-2.28.37-4.54 1.22-6.65.84-2.11 2.09-4.04 3.69-5.66a16.94 16.94 0 0 1 12.18-5.07c2.3-.06 4.58.35 6.71 1.2s4.08 2.13 5.71 3.75 2.92 3.56 3.79 5.7l-.01-.01Z"/>
   </g>
   <defs>
      <clipPath id="a">
         <path fill="#fff" d="M0 0h1024v1024H0z"/>
      </clipPath>
   </defs>
</svg>
